X:1
T:The Four Maries
M:6/8
L:1/16
K:F
 F2| F4 A2- c4 c2|c-f f4 c4B-A| G4 A2 B4 A2| A2- G8 FF| A4G-F G G3 c2|\
 F4 D2 C C3F-G| A3 G F2 A A3 G2| F6- F4||
